image/icon/Stable.svg

<!--version="1.0" encoding="UTF-8"--><svg version="1.1" id="Layer_1" xmlns="http://www.w3.org/2000/svg" width="30" height="38" xml:space="preserve"><g id="PathID_58" transform="matrix(1, 0, 0, 1, 14.6, 19)"><path style="fill: rgb(255, 255, 255); fill-opacity: 1;" d="M5.15-15.55Q7.6-14 9.45-11.2 12.9-5.85 12.9 1.7q0 4.2-1.9 9.7h1.5v5.65H2.35v-4.7L4 10.3q1.5-1.85 2.15-3.75.75-2.1.75-4.85 0-4.7-2.05-7.45Q2.95-8.3 0-8.3q-2.95 0-4.85 2.55Q-6.9-3-6.9 1.7q0 2.75.75 4.85.7 1.9 2.15 3.75l1.55 1.95v4.8h-10.3V11.4H-11q-1.9-5.5-1.9-9.7 0-7.55 3.45-12.9 1.85-2.8 4.3-4.35Q-2.7-17.1 0-17.1t5.15 1.55M.1-14.7q-.95 0-1.6.75-.65.75-.65 1.75 0 1.05.65 1.8.65.7 1.6.7.9 0 1.55-.7.65-.75.65-1.8 0-1-.65-1.75T.1-14.7m6.85 7.35q-.5.6-.5 1.4 0 .8.5 1.4.55.6 1.25.6.75 0 1.25-.6.5-.55.5-1.4 0-.85-.5-1.4-.5-.6-1.25-.6-.7 0-1.25.6m3.6 12.7Q10 4.8 9.3 4.8q-.75 0-1.25.55-.55.6-.55 1.45t.55 1.4q.5.6 1.25.6.7 0 1.25-.6.5-.6.5-1.4 0-.85-.5-1.45M-8.2-7.95q-.75 0-1.25.6-.5.55-.5 1.4 0 .85.5 1.4.5.6 1.25.6.7 0 1.25-.6.5-.6.5-1.4 0-.8-.5-1.4-.55-.6-1.25-.6M-9.3 4.8q-.7 0-1.25.55-.5.6-.5 1.45 0 .8.5 1.4.55.6 1.25.6.75 0 1.3-.6.5-.55.5-1.4 0-.85-.5-1.45-.55-.55-1.3-.55"/><path style="fill: rgb(0, 0, 0); fill-opacity: 1;" d="M0-17.1q-2.7 0-5.15 1.55t-4.3 4.35Q-12.9-5.85-12.9 1.7q0 4.2 1.9 9.7h-1.75v5.65h10.3v-4.8L-4 10.3q-1.45-1.85-2.15-3.75-.75-2.1-.75-4.85 0-4.7 2.05-7.45Q-2.95-8.3 0-8.3q2.95 0 4.85 2.55Q6.9-3 6.9 1.7q0 2.75-.75 4.85Q5.5 8.45 4 10.3l-1.65 2.05v4.7H12.5V11.4H11q1.9-5.5 1.9-9.7 0-7.55-3.45-12.9-1.85-2.8-4.3-4.35Q2.7-17.1 0-17.1m5.95-.15q2.8 1.75 4.85 4.95 3.8 5.9 3.8 14 0 3.3-1.2 7.8h.8V19H.65v-7.35L2.75 9Q4 7.5 4.55 5.95q.65-1.8.65-4.25 0-3.65-1.4-5.9Q2.35-6.4 0-6.4t-3.8 2.2q-1.4 2.25-1.4 5.9 0 2.45.65 4.25Q-4 7.5-2.75 9l2 2.55V19h-13.7V9.5h1.05q-1.2-4.5-1.2-7.8 0-8.1 3.8-14 2.05-3.2 4.9-4.95Q-3.1-19 0-19q3.1 0 5.95 1.75m-4.3 3.3q.65.75.65 1.75 0 1.05-.65 1.8Q1-9.7.1-9.7q-.95 0-1.6-.7-.65-.75-.65-1.8 0-1 .65-1.75t1.6-.75q.9 0 1.55.75m6.55 6q.75 0 1.25.6.5.55.5 1.4 0 .85-.5 1.4-.5.6-1.25.6-.7 0-1.25-.6-.5-.6-.5-1.4 0-.8.5-1.4.55-.6 1.25-.6M11.05 6.8q0 .8-.5 1.4-.55.6-1.25.6-.75 0-1.25-.6-.55-.55-.55-1.4 0-.85.55-1.45.5-.55 1.25-.55.7 0 1.25.55.5.6.5 1.45m-18-14.15q.5.6.5 1.4 0 .8-.5 1.4-.55.6-1.25.6-.75 0-1.25-.6-.5-.55-.5-1.4 0-.85.5-1.4.5-.6 1.25-.6.7 0 1.25.6M-8 5.35q.5.6.5 1.45T-8 8.2q-.55.6-1.3.6-.7 0-1.25-.6-.5-.6-.5-1.4 0-.85.5-1.45.55-.55 1.25-.55.75 0 1.3.55"/></g></svg>

<?xml version="1.0" encoding="UTF-8"?>
<svg version="1.1" id="Layer_1" xmlns="http://www.w3.org/2000/svg" xmlns:xlink="http://www.w3.org/1999/xlink" width="30px" height="38px" xml:space="preserve">
<g id="PathID_58" transform="matrix(1, 0, 0, 1, 14.6, 19)">
<path style="fill:#FFFFFF;fill-opacity:1" d="M5.15 -15.55Q7.6 -14 9.45 -11.2Q12.9 -5.85 12.9 1.7Q12.9 5.9 11 11.4L12.5 11.4L12.5 17.05L2.35 17.05L2.35 12.35L4 10.3Q5.5 8.45 6.15 6.55Q6.9 4.45 6.9 1.7Q6.9 -3 4.85 -5.75Q2.95 -8.3 0 -8.3Q-2.95 -8.3 -4.85 -5.75Q-6.9 -3 -6.9 1.7Q-6.9 4.45 -6.15 6.55Q-5.45 8.45 -4 10.3L-2.45 12.25L-2.45 17.05L-12.75 17.05L-12.75 11.4L-11 11.4Q-12.9 5.9 -12.9 1.7Q-12.9 -5.85 -9.45 -11.2Q-7.6 -14 -5.15 -15.55Q-2.7 -17.1 0 -17.1Q2.7 -17.1 5.15 -15.55M0.1 -14.7Q-0.85 -14.7 -1.5 -13.95Q-2.15 -13.2 -2.15 -12.2Q-2.15 -11.15 -1.5 -10.4Q-0.85 -9.7 0.1 -9.7Q1 -9.7 1.65 -10.4Q2.3 -11.15 2.3 -12.2Q2.3 -13.2 1.65 -13.95Q1 -14.7 0.1 -14.7M6.95 -7.35Q6.45 -6.75 6.45 -5.95Q6.45 -5.15 6.95 -4.55Q7.5 -3.95 8.2 -3.95Q8.95 -3.95 9.45 -4.55Q9.95 -5.1 9.95 -5.95Q9.95 -6.8 9.45 -7.35Q8.95 -7.95 8.2 -7.95Q7.5 -7.95 6.95 -7.35M10.55 5.35Q10 4.8 9.3 4.8Q8.55 4.8 8.05 5.35Q7.5 5.95 7.5 6.8Q7.5 7.65 8.05 8.2Q8.55 8.8 9.3 8.8Q10 8.8 10.55 8.2Q11.05 7.6 11.05 6.8Q11.05 5.95 10.55 5.35M-8.2 -7.95Q-8.95 -7.95 -9.45 -7.35Q-9.95 -6.8 -9.95 -5.95Q-9.95 -5.1 -9.45 -4.55Q-8.95 -3.95 -8.2 -3.95Q-7.5 -3.95 -6.95 -4.55Q-6.45 -5.15 -6.45 -5.95Q-6.45 -6.75 -6.95 -7.35Q-7.5 -7.95 -8.2 -7.95M-9.3 4.8Q-10 4.8 -10.55 5.35Q-11.05 5.95 -11.05 6.8Q-11.05 7.6 -10.55 8.2Q-10 8.8 -9.3 8.8Q-8.55 8.8 -8 8.2Q-7.5 7.65 -7.5 6.8Q-7.5 5.95 -8 5.35Q-8.55 4.8 -9.3 4.8"/>
<path style="fill:#000000;fill-opacity:1" d="M0 -17.1Q-2.7 -17.1 -5.15 -15.55Q-7.6 -14 -9.45 -11.2Q-12.9 -5.85 -12.9 1.7Q-12.9 5.9 -11 11.4L-12.75 11.4L-12.75 17.05L-2.45 17.05L-2.45 12.25L-4 10.3Q-5.45 8.45 -6.15 6.55Q-6.9 4.45 -6.9 1.7Q-6.9 -3 -4.85 -5.75Q-2.95 -8.3 0 -8.3Q2.95 -8.3 4.85 -5.75Q6.9 -3 6.9 1.7Q6.9 4.45 6.15 6.55Q5.5 8.45 4 10.3L2.35 12.35L2.35 17.05L12.5 17.05L12.5 11.4L11 11.4Q12.9 5.9 12.9 1.7Q12.9 -5.85 9.45 -11.2Q7.6 -14 5.15 -15.55Q2.7 -17.1 0 -17.1M5.95 -17.25Q8.75 -15.5 10.8 -12.3Q14.6 -6.4 14.6 1.7Q14.6 5 13.4 9.5L14.2 9.5L14.2 19L0.65 19L0.65 11.65L2.75 9Q4 7.5 4.55 5.95Q5.2 4.15 5.2 1.7Q5.2 -1.95 3.8 -4.2Q2.35 -6.4 0 -6.4Q-2.35 -6.4 -3.8 -4.2Q-5.2 -1.95 -5.2 1.7Q-5.2 4.15 -4.55 5.95Q-4 7.5 -2.75 9L-0.75 11.55L-0.75 19L-14.45 19L-14.45 9.5L-13.4 9.5Q-14.6 5 -14.6 1.7Q-14.6 -6.4 -10.8 -12.3Q-8.75 -15.5 -5.9 -17.25Q-3.1 -19 0 -19Q3.1 -19 5.95 -17.25M1.65 -13.95Q2.3 -13.2 2.3 -12.2Q2.3 -11.15 1.65 -10.4Q1 -9.7 0.1 -9.7Q-0.85 -9.7 -1.5 -10.4Q-2.15 -11.15 -2.15 -12.2Q-2.15 -13.2 -1.5 -13.95Q-0.85 -14.7 0.1 -14.7Q1 -14.7 1.65 -13.95M8.2 -7.95Q8.95 -7.95 9.45 -7.35Q9.95 -6.8 9.95 -5.95Q9.95 -5.1 9.45 -4.55Q8.95 -3.95 8.2 -3.95Q7.5 -3.95 6.95 -4.55Q6.45 -5.15 6.45 -5.95Q6.45 -6.75 6.95 -7.35Q7.5 -7.95 8.2 -7.95M11.05 6.8Q11.05 7.6 10.55 8.2Q10 8.8 9.3 8.8Q8.55 8.8 8.05 8.2Q7.5 7.65 7.5 6.8Q7.5 5.95 8.05 5.35Q8.55 4.8 9.3 4.8Q10 4.8 10.55 5.35Q11.05 5.95 11.05 6.8M-6.95 -7.35Q-6.45 -6.75 -6.45 -5.95Q-6.45 -5.15 -6.95 -4.55Q-7.5 -3.95 -8.2 -3.95Q-8.95 -3.95 -9.45 -4.55Q-9.95 -5.1 -9.95 -5.95Q-9.95 -6.8 -9.45 -7.35Q-8.95 -7.95 -8.2 -7.95Q-7.5 -7.95 -6.95 -7.35M-8 5.35Q-7.5 5.95 -7.5 6.8Q-7.5 7.65 -8 8.2Q-8.55 8.8 -9.3 8.8Q-10 8.8 -10.55 8.2Q-11.05 7.6 -11.05 6.8Q-11.05 5.95 -10.55 5.35Q-10 4.8 -9.3 4.8Q-8.55 4.8 -8 5.35"/>
</g>
</svg>
